icon-themes/sifr_svg/cmd/lc_spinbutton.svg

<svg viewBox="0 0 24 24" xmlns="http://www.w3.org/2000/svg"><path d="m6 1c-.554 0-1 .446-1 1v20c0 .554.446 1 1 1h12c.554 0 1-.446 1-1v-20c0-.554-.446-1-1-1zm1 2h10v18h-10zm5 1-4 5h8zm-4 7v2h8v-2zm0 4 4 5 4-5z" fill="#555753"/></svg>

<svg xmlns="http://www.w3.org/2000/svg" viewBox="0 0 24 24">
  <path
     style="fill:#555753"
     d="M 6 1 C 5.446 1 5 1.446 5 2 L 5 22 C 5 22.554 5.446 23 6 23 L 18 23 C 18.554 23 19 22.554 19 22 L 19 2 C 19 1.446 18.554 1 18 1 L 6 1 z M 7 3 L 17 3 L 17 21 L 7 21 L 7 3 z M 12 4 L 8 9 L 16 9 L 12 4 z M 8 11 L 8 13 L 16 13 L 16 11 L 8 11 z M 8 15 L 12 20 L 16 15 L 8 15 z "
     />
</svg>
